X:1
T:Mainzer, LM
T:Mainzer, LM
T:Joseph Mainzer, 1841
T:Public Domain Courtesy of the Cyber Hymnal™
C:Joseph Mainzer, 1841
Z:Public Domain
Z:Courtesy of the Cyber Hymnal™
%%score ( 1 2 ) ( 3 4 )
L:1/8
Q:1/4=112
M:none
K:C
V:1 treble 
V:2 treble 
V:3 bass 
V:4 bass 
V:1
 [EG]2 | [CG]2 [DG]2 [Ec]2 [GB]2 | [FA]2 [FA]2 [EG]6 [EA]2 | [DF]2 [DG]2 E2 [Ac]2 | %4
 [GB]2 [^FA]2 G6 [DG]2 | [EG]2 [FG]2 [Ec]2 [GB]2 | [GA]2 [FA]2 [EG]6 [EG]2 | %7
 [FA]2 [FB]2 [Ec]2 (ed) | [Ec]2 [DB]2 !fermata![Ec]2 |] %9
V:2
 x2 | x8 | x12 | x4 E2 x2 | x4 G6 x2 | x8 | x12 | x6 F2 | x6 |] %9
V:3
 [C,C]2 | [CE]2 [B,D]2 [A,C]2 [E,C]2 | [F,C]2 (A,B,) [C,C]6 [^C,A,]2 | %3
 [D,A,]2 [B,,G,]2 [C,G,]2 [A,,E]2 | [D,D]2 [D,C]2 [G,,B,]6 [F,B,]2 | [E,C]2 [D,B,]2 [C,C]2 [E,C]2 | %6
 [F,C]2 (A,B,) [C,C]6 [C,C]2 | C2 [D,D]2 [A,C]2 [F,A,]2 | G,2 [G,,G,]2 !fermata![C,G,]2 |] %9
V:4
 x2 | x8 | x2 F,2 x8 | x8 | x12 | x8 | x2 F,2 x8 | (F,E,) x6 | G,2 x4 |] %9

